sabine/images/noise/tv.svg

<?xml version="1.0" encoding="UTF-8" standalone="no"?>
<svg
   xmlns:dc="http://purl.org/dc/elements/1.1/"
   xmlns:cc="http://creativecommons.org/ns#"
   xmlns:rdf="http://www.w3.org/1999/02/22-rdf-syntax-ns#"
   xmlns:svg="http://www.w3.org/2000/svg"
   xmlns="http://www.w3.org/2000/svg"
   id="svg2"
   version="1.1"
   viewBox="0 0 100 100"
   height="100pt"
   width="100pt">
  <metadata
     id="metadata13">
    <rdf:RDF>
      <cc:Work
         rdf:about="">
        <dc:format>image/svg+xml</dc:format>
        <dc:type
           rdf:resource="http://purl.org/dc/dcmitype/StillImage" />
        <dc:title></dc:title>
      </cc:Work>
    </rdf:RDF>
  </metadata>
  <defs
     id="defs11" />
  <g
     transform="matrix(0.92,0,0,0.92,4,0)"
     id="#000000ff">
    <path
       style="opacity:1;fill:#000000"
       id="path5"
       d="m 0,18.05 c 1.06,-1.81 2.85,-2.84 4.98,-2.56 30.34,0.06 60.69,-0.06 91.02,0.06 1.92,-0.31 3.03,1.24 4,2.6 l 0,63.42 C 98.69,85.48 94.14,84.4 90.95,84.53 63.64,84.48 36.32,84.48 9,84.53 5.83,84.41 1.64,85.4 0,81.86 L 0,18.05 M 7.76,23 c -0.01,16.67 -0.01,33.33 0,50 28.16,0 56.32,0 84.48,0 0.01,-16.67 0.01,-33.33 0,-50 -28.16,0 -56.32,0 -84.48,0 z" />
    <path
       style="opacity:1;fill:#000000"
       id="path7"
       d="m 34.34,96.24 c -0.18,-3.06 0.82,-7.58 4.62,-7.7 6.68,-0.16 13.36,0.05 20.05,-0.07 1.96,0.13 4.63,-0.25 5.73,1.83 0.83,1.88 0.85,3.96 0.9,5.98 6.43,0.04 12.88,-0.19 19.31,0.04 2.18,-0.08 2.91,2.31 4.06,3.68 l -77.95,0 c 1.15,-1.34 1.83,-3.76 3.97,-3.68 6.43,-0.24 12.87,0.03 19.31,-0.08 z" />
  </g>
</svg>

<?xml version="1.0" encoding="UTF-8" ?>
<!DOCTYPE svg PUBLIC "-//W3C//DTD SVG 1.1//EN" "http://www.w3.org/Graphics/SVG/1.1/DTD/svg11.dtd">
<svg width="100pt" height="100pt" viewBox="0 0 100 100" version="1.1" xmlns="http://www.w3.org/2000/svg">
<g id="#000000ff">
<path fill="#000000" opacity="1.00" d=" M 0.00 18.05 C 1.06 16.24 2.85 15.21 4.98 15.49 C 35.32 15.55 65.67 15.43 96.00 15.55 C 97.92 15.24 99.03 16.79 100.00 18.15 L 100.00 81.57 C 98.69 85.48 94.14 84.40 90.95 84.53 C 63.64 84.48 36.32 84.48 9.00 84.53 C 5.83 84.41 1.64 85.40 0.00 81.86 L 0.00 18.05 M 7.76 23.00 C 7.75 39.67 7.75 56.33 7.76 73.00 C 35.92 73.00 64.08 73.00 92.24 73.00 C 92.25 56.33 92.25 39.67 92.24 23.00 C 64.08 23.00 35.92 23.00 7.76 23.00 Z" />
<path fill="#000000" opacity="1.00" d=" M 34.34 96.24 C 34.16 93.18 35.16 88.66 38.96 88.54 C 45.64 88.38 52.32 88.59 59.01 88.47 C 60.97 88.60 63.64 88.22 64.74 90.30 C 65.57 92.18 65.59 94.26 65.64 96.28 C 72.07 96.32 78.52 96.09 84.95 96.32 C 87.13 96.24 87.86 98.63 89.01 100.00 L 11.06 100.00 C 12.21 98.66 12.89 96.24 15.03 96.32 C 21.46 96.08 27.90 96.35 34.34 96.24 Z" />
</g>
</svg>
